Newaita-dark/mimetypes/24/text-vnd-trolltech-linguist.svg

<svg height="24pt" viewBox="0 0 24 24" width="24pt" xmlns="http://www.w3.org/2000/svg" xmlns:xlink="http://www.w3.org/1999/xlink"><linearGradient id="a"><stop offset="0" stop-opacity=".27451"/><stop offset="1" stop-opacity="0"/></linearGradient><linearGradient id="b" gradientUnits="userSpaceOnUse" x1="12.403533" x2="12.403533" xlink:href="#a" y1="21.02545025" y2="22.01773315627"/><linearGradient id="c"><stop offset="0" stop-opacity=".313725"/><stop offset=".222222" stop-opacity=".27451"/><stop offset="1" stop-opacity="0"/></linearGradient><radialGradient id="d" cx="450.90894" cy="189.57936" gradientTransform="matrix(.00000013 -.0585994 -.105479 -.00000008 37.113426 47.6965)" gradientUnits="userSpaceOnUse" r="21.166656" xlink:href="#c"/><radialGradient id="e" cx="450.90894" cy="189.57936" gradientTransform="matrix(-.00000013 .0585994 .105479 .00000008 -13.794789 -5.64561)" gradientUnits="userSpaceOnUse" r="21.166656" xlink:href="#c"/><radialGradient id="f" cx="450.90894" cy="189.57936" gradientTransform="matrix(-.00000013 -.0585994 .105479 -.00000008 -13.794789 47.6965)" gradientUnits="userSpaceOnUse" r="21.166656" xlink:href="#c"/><radialGradient id="g" cx="450.90894" cy="189.57936" gradientTransform="matrix(.00000013 .0585994 -.105479 .00000008 37.113425 -5.64561)" gradientUnits="userSpaceOnUse" r="21.166656" xlink:href="#c"/><linearGradient id="h" gradientUnits="userSpaceOnUse" x1="11.65929" x2="11.65929" y1="21.0253985937" y2="2.17207760142"><stop offset="0" stop-color="#616161"/><stop offset="1" stop-color="#757575"/></linearGradient><linearGradient id="i" gradientTransform="matrix(.0224206 0 0 .082039 11.281817 -12.394717)" gradientUnits="userSpaceOnUse" x1="249.18942" x2="249.18942" xlink:href="#a" y1="233.5" y2="254.66669"/><linearGradient id="j"><stop offset="0" stop-color="#424242"/><stop offset="1" stop-color="#616161"/></linearGradient><linearGradient id="k" gradientUnits="userSpaceOnUse" x1="15.87652368747" x2="15.87652368747" xlink:href="#j" y1="21.02545025" y2="2.17207784373"/><linearGradient id="l" gradientUnits="userSpaceOnUse" x1="800.00012649104" x2="819.99962862409" xlink:href="#j" y1="1695.11819267241" y2="175.11810090943"/><path d="m5.953125 21.027344h11.410156v.992187h-11.410156zm0 0" fill="url(#b)"/><path d="m17.363281 21.027344h1.984375v-.996094h-1.984375zm0 0" fill="url(#d)"/><path d="m5.953125 21.027344h-1.984375v.992187h1.984375zm0 0" fill="url(#e)"/><path d="m5.953125 21.027344h-1.984375v-.996094h1.984375zm0 0" fill="url(#f)"/><path d="m17.363281 21.027344h1.984375v.992187h-1.984375zm0 0" fill="url(#g)"/><path d="m13.90625 2.171875h-8.945312c-.550782 0-.992188.441406-.992188.992187v16.867188c0 .550781.441406.996094.992188.996094h13.394531c.550781 0 .992187-.445313.992187-.996094v-12.417969zm0 0" fill="url(#h)"/><path d="m3.96875 19.648438v.382812c0 .550781.441406.996094.992188.996094h13.394531c.550781 0 .992187-.445313.992187-.996094v-.382812c0 .550781-.441406.992187-.992187.992187h-13.394531c-.550782 0-.992188-.441406-.992188-.992187zm0 0" fill-opacity=".235294"/><path d="m13.890625 6.761719h4.714844l.742187.742187v.992188h-5.457031zm0 0" fill="url(#i)"/><path d="m4.960938 2.171875c-.550782 0-.992188.441406-.992188.992187v.371094c0-.546875.441406-.992187.992188-.992187h8.945312l5.441406 5.445312v-.375l-5.441406-5.441406zm0 0" fill="#fff" fill-opacity=".392157"/><path d="m19.347656 7.613281-5.441406-5.441406v4.449219c0 .550781.441406.992187.992188.992187zm0 0" fill="url(#k)"/><path d="m13.90625 6.390625v.230469c0 .550781.441406.992187.992188.992187h4.449218l-.230468-.230469h-4.21875c-.550782 0-.992188-.445312-.992188-.992187zm0 0" fill-opacity=".235294"/><path d="m13.90625 2.171875v.371094l5.070312 5.070312h.371094zm0 0" fill="#fff" fill-opacity=".392157"/><path d="m13.90625 2.101562c-.039062 0-.070312.03125-.070312.070313v4.449219c0 .589844.476562 1.0625 1.0625 1.0625h4.449218c.03125 0 .054688-.015625.066406-.042969.011719-.023437.003907-.054687-.015624-.074219l-5.441407-5.445312c-.015625-.011719-.03125-.019532-.050781-.019532zm.070312.238282 5.203126 5.203125h-4.28125c-.511719 0-.921876-.410157-.921876-.921875zm0 0" fill="#212121"/><path d="m4.960938 2.101562c-.585938 0-1.0625.476563-1.0625 1.0625v16.867188c0 .589844.476562 1.066406 1.0625 1.066406h13.394531c.589843 0 1.0625-.476562 1.0625-1.066406v-12.417969c0-.015625-.003907-.035156-.019531-.046875l-5.441407-5.445312c-.015625-.011719-.03125-.019532-.050781-.019532zm0 .140626h8.917968l5.398438 5.402343v12.386719c0 .515625-.40625.925781-.921875.925781h-13.394531c-.511719 0-.921876-.410156-.921876-.925781v-16.867188c0-.511718.410157-.921874.921876-.921874zm0 0" fill="#212121"/><path d="m774.414246 706.389245c-12.912153.314931-24.249653 8.503125-30.863195 18.580903 6.298611 24.249653 1.574653 49.444098.314931 74.323612-37.791668 1.259722-75.583335.944792-113.375002-.629861-28.973611 8.503125-38.421528 42.830556-3.779167 55.742709 37.791668-1.574653 75.583335-3.464236 113.375002-5.66875-1.889583 34.957292-2.204514 69.599654-1.889583 104.556946-27.71389 12.282291-53.853126 28.973611-75.268404 50.70382-46.609723 45.03507-66.450348 117.784029-40.940973 178.250696 19.840625 46.294793 82.511807 57.002432 124.082641 35.587154 15.116666-.944792 37.791667-30.548265 45.979861-17.951042 27.084028 45.664931 93.219446 2.519444 47.554515-53.853126 44.405209-50.073959 72.119098-112.115279 93.534376-174.78646 15.746528 3.149305 31.807986 6.613541 46.924653 12.282291v-49.129167c-2.204514-.629861-4.723958-1.259722-6.928472-1.889583-16.376389-2.834375-30.863195-5.35382-19.840625-22.989931 8.503125-12.597222 18.265972-16.376389 14.171875-27.398959-17.951042-5.98368-37.161806-7.873264-55.742709-12.282292-26.769098-5.66875-10.077778 35.902084-21.730209 51.333682-33.69757 1.889583-67.39514 5.353819-99.832987 14.171875 0-30.233334 1.574653-60.151737 3.779167-90.385071 62.671181-5.353819 125.027432-11.967361 187.068752-23.619792 20.470486-3.779166 20.470486-51.333681-15.431598-51.333681-49.444097 11.967361-99.832987 19.840625-150.536807 24.879514-24.879514 7.873264-12.912153-43.145486-3.779167-66.765278-12.282291-16.061459-25.194444-22.04514-36.846875-21.730209zm285.642017 208.798961c-22.360069 0-39.996181 18.265972-39.996181 41.255903v298.554171h59.836807v-113.060071h140.144099v113.060071h59.836806v-298.554171c0-22.989931-17.636111-41.255903-39.996181-41.255903zm-183.289585 52.278473c-14.486806 44.405209-31.807987 89.125348-59.206945 127.231946-12.912153-35.902084-22.675001-73.06389-25.509376-110.855557 27.713889-7.873264 56.05764-14.486806 84.716321-16.376389zm223.285766 9.447917h99.832988c11.3375 0 20.155556 9.132986 20.155556 20.785417v82.196876h-140.144099v-82.196876c0-11.652431 9.132986-20.785417 20.155555-20.785417zm-358.076046 27.713889c2.204514 24.564584 5.66875 48.814237 11.02257 72.748959-1.259722 24.879514 32.437847 59.206945 5.98368 74.638543-22.675 17.951042-58.577084 32.752778-84.71632 14.171875-15.431597-20.470486-11.967361-49.444098-6.928472-73.06389 8.818055-39.68125 40.311111-68.969792 74.638542-88.495487zm238.087503 170.377433c-23.619792 10.707639-49.759028 17.00625-74.008681 21.730208-18.580903-.31493-31.493056 80.622223 68.654862 45.350001 1.889583-.629861 3.464236-1.259722 5.353819-1.889584zm0 0" fill="url(#l)" stroke="#212121" stroke-width="11.338583" transform="scale(.0124035)"/></svg>

<svg xmlns="http://www.w3.org/2000/svg" xmlns:xlink="http://www.w3.org/1999/xlink" width="24px" height="24px" viewBox="0 0 24 24" version="1.1">
<defs>
<linearGradient id="linear0" gradientUnits="userSpaceOnUse" x1="33.076088" y1="56.067867" x2="33.076088" y2="58.713955" gradientTransform="matrix(0.375,0,0,0.375,0,0)">
<stop offset="0" style="stop-color:rgb(0%,0%,0%);stop-opacity:0.27451;"/>
<stop offset="1" style="stop-color:rgb(0%,0%,0%);stop-opacity:0;"/>
</linearGradient>
<radialGradient id="radial0" gradientUnits="userSpaceOnUse" cx="450.908936" cy="189.579361" fx="450.908936" fy="189.579361" r="21.166656" gradientTransform="matrix(0.00000013125,-0.0585994,-0.105479,-0.000000075,37.113427,47.6965)">
<stop offset="0" style="stop-color:rgb(0%,0%,0%);stop-opacity:0.313725;"/>
<stop offset="0.222222" style="stop-color:rgb(0%,0%,0%);stop-opacity:0.27451;"/>
<stop offset="1" style="stop-color:rgb(0%,0%,0%);stop-opacity:0;"/>
</radialGradient>
<radialGradient id="radial1" gradientUnits="userSpaceOnUse" cx="450.908936" cy="189.579361" fx="450.908936" fy="189.579361" r="21.166656" gradientTransform="matrix(-0.00000013125,0.0585994,0.105479,0.000000075,-13.794788,-5.64561)">
<stop offset="0" style="stop-color:rgb(0%,0%,0%);stop-opacity:0.313725;"/>
<stop offset="0.222222" style="stop-color:rgb(0%,0%,0%);stop-opacity:0.27451;"/>
<stop offset="1" style="stop-color:rgb(0%,0%,0%);stop-opacity:0;"/>
</radialGradient>
<radialGradient id="radial2" gradientUnits="userSpaceOnUse" cx="450.908936" cy="189.579361" fx="450.908936" fy="189.579361" r="21.166656" gradientTransform="matrix(-0.00000013125,-0.0585994,0.105479,-0.000000075,-13.794788,47.6965)">
<stop offset="0" style="stop-color:rgb(0%,0%,0%);stop-opacity:0.313725;"/>
<stop offset="0.222222" style="stop-color:rgb(0%,0%,0%);stop-opacity:0.27451;"/>
<stop offset="1" style="stop-color:rgb(0%,0%,0%);stop-opacity:0;"/>
</radialGradient>
<radialGradient id="radial3" gradientUnits="userSpaceOnUse" cx="450.908936" cy="189.579361" fx="450.908936" fy="189.579361" r="21.166656" gradientTransform="matrix(0.00000013125,0.0585994,-0.105479,0.000000075,37.113424,-5.64561)">
<stop offset="0" style="stop-color:rgb(0%,0%,0%);stop-opacity:0.313725;"/>
<stop offset="0.222222" style="stop-color:rgb(0%,0%,0%);stop-opacity:0.27451;"/>
<stop offset="1" style="stop-color:rgb(0%,0%,0%);stop-opacity:0;"/>
</radialGradient>
<linearGradient id="linear1" gradientUnits="userSpaceOnUse" x1="31.091534" y1="56.067898" x2="31.091534" y2="5.792224" gradientTransform="matrix(0.375,0,0,0.375,0,0)">
<stop offset="0" style="stop-color:rgb(38.039216%,38.039216%,38.039216%);stop-opacity:1;"/>
<stop offset="1" style="stop-color:rgb(45.882353%,45.882353%,45.882353%);stop-opacity:1;"/>
</linearGradient>
<linearGradient id="linear2" gradientUnits="userSpaceOnUse" x1="249.189423" y1="233.5" x2="249.189423" y2="254.666687" gradientTransform="matrix(0.0224206,0,0,0.0820391,11.281817,-12.394718)">
<stop offset="0" style="stop-color:rgb(0%,0%,0%);stop-opacity:0.27451;"/>
<stop offset="1" style="stop-color:rgb(0%,0%,0%);stop-opacity:0;"/>
</linearGradient>
<linearGradient id="linear3" gradientUnits="userSpaceOnUse" x1="42.337395" y1="56.067867" x2="42.337395" y2="5.792208" gradientTransform="matrix(0.375,0,0,0.375,0,0)">
<stop offset="0" style="stop-color:rgb(25.882354%,25.882354%,25.882354%);stop-opacity:1;"/>
<stop offset="1" style="stop-color:rgb(38.039216%,38.039216%,38.039216%);stop-opacity:1;"/>
</linearGradient>
<linearGradient id="linear4" gradientUnits="userSpaceOnUse" x1="800.000122" y1="1695.118164" x2="819.999634" y2="175.118103" >
<stop offset="0" style="stop-color:rgb(25.882354%,25.882354%,25.882354%);stop-opacity:1;"/>
<stop offset="1" style="stop-color:rgb(38.039216%,38.039216%,38.039216%);stop-opacity:1;"/>
</linearGradient>
</defs>
<g id="surface1">
<path style=" stroke:none;fill-rule:nonzero;fill:url(#linear0);" d="M 5.953125 21.023438 L 17.363281 21.023438 L 17.363281 22.019531 L 5.953125 22.019531 Z M 5.953125 21.023438 "/>
<path style=" stroke:none;fill-rule:nonzero;fill:url(#radial0);" d="M 17.363281 21.023438 L 19.347656 21.023438 L 19.347656 20.03125 L 17.363281 20.03125 Z M 17.363281 21.023438 "/>
<path style=" stroke:none;fill-rule:nonzero;fill:url(#radial1);" d="M 5.953125 21.023438 L 3.96875 21.023438 L 3.96875 22.019531 L 5.953125 22.019531 Z M 5.953125 21.023438 "/>
<path style=" stroke:none;fill-rule:nonzero;fill:url(#radial2);" d="M 5.953125 21.023438 L 3.96875 21.023438 L 3.96875 20.03125 L 5.953125 20.03125 Z M 5.953125 21.023438 "/>
<path style=" stroke:none;fill-rule:nonzero;fill:url(#radial3);" d="M 17.363281 21.023438 L 19.347656 21.023438 L 19.347656 22.019531 L 17.363281 22.019531 Z M 17.363281 21.023438 "/>
<path style=" stroke:none;fill-rule:nonzero;fill:url(#linear1);" d="M 13.90625 2.171875 L 4.960938 2.171875 C 4.414062 2.171875 3.96875 2.613281 3.96875 3.164062 L 3.96875 20.03125 C 3.96875 20.582031 4.414062 21.023438 4.960938 21.023438 L 18.359375 21.023438 C 18.90625 21.023438 19.347656 20.582031 19.347656 20.03125 L 19.347656 7.617188 Z M 13.90625 2.171875 "/>
<path style=" stroke:none;fill-rule:nonzero;fill:rgb(0%,0%,0%);fill-opacity:0.235294;" d="M 3.96875 19.648438 L 3.96875 20.03125 C 3.96875 20.582031 4.414062 21.023438 4.960938 21.023438 L 18.359375 21.023438 C 18.90625 21.023438 19.347656 20.582031 19.347656 20.03125 L 19.347656 19.648438 C 19.347656 20.195312 18.90625 20.640625 18.359375 20.640625 L 4.960938 20.640625 C 4.414062 20.640625 3.96875 20.195312 3.96875 19.648438 Z M 3.96875 19.648438 "/>
<path style=" stroke:none;fill-rule:nonzero;fill:url(#linear2);" d="M 13.890625 6.761719 L 18.605469 6.761719 L 19.347656 7.507812 L 19.347656 8.496094 L 13.890625 8.496094 Z M 13.890625 6.761719 "/>
<path style=" stroke:none;fill-rule:nonzero;fill:rgb(100%,100%,100%);fill-opacity:0.392157;" d="M 4.960938 2.171875 C 4.414062 2.171875 3.96875 2.613281 3.96875 3.164062 L 3.96875 3.535156 C 3.96875 2.988281 4.410156 2.542969 4.960938 2.542969 L 13.90625 2.542969 L 19.347656 7.988281 L 19.347656 7.617188 L 13.90625 2.171875 Z M 4.960938 2.171875 "/>
<path style=" stroke:none;fill-rule:nonzero;fill:url(#linear3);" d="M 19.347656 7.617188 L 13.90625 2.171875 L 13.90625 6.621094 C 13.90625 7.171875 14.351562 7.617188 14.898438 7.617188 Z M 19.347656 7.617188 "/>
<path style=" stroke:none;fill-rule:nonzero;fill:rgb(0%,0%,0%);fill-opacity:0.235294;" d="M 13.90625 6.390625 L 13.90625 6.621094 C 13.90625 7.171875 14.351562 7.617188 14.898438 7.617188 L 19.347656 7.617188 L 19.117188 7.382812 L 14.898438 7.382812 C 14.351562 7.382812 13.90625 6.9375 13.90625 6.390625 Z M 13.90625 6.390625 "/>
<path style=" stroke:none;fill-rule:nonzero;fill:rgb(100%,100%,100%);fill-opacity:0.392157;" d="M 13.90625 2.171875 L 13.90625 2.542969 L 18.976562 7.617188 L 19.347656 7.617188 Z M 13.90625 2.171875 "/>
<path style=" stroke:none;fill-rule:nonzero;fill:rgb(12.941177%,12.941177%,12.941177%);fill-opacity:1;" d="M 13.90625 2.101562 C 13.867188 2.101562 13.835938 2.132812 13.835938 2.171875 L 13.835938 6.621094 C 13.835938 7.210938 14.3125 7.6875 14.898438 7.6875 L 19.347656 7.6875 C 19.378906 7.683594 19.402344 7.667969 19.414062 7.640625 C 19.425781 7.617188 19.417969 7.585938 19.398438 7.566406 L 13.957031 2.121094 C 13.941406 2.109375 13.925781 2.101562 13.90625 2.101562 Z M 13.976562 2.34375 L 19.179688 7.542969 L 14.898438 7.542969 C 14.386719 7.542969 13.976562 7.136719 13.976562 6.621094 Z M 13.976562 2.34375 "/>
<path style=" stroke:none;fill-rule:nonzero;fill:rgb(12.941177%,12.941177%,12.941177%);fill-opacity:1;" d="M 4.960938 2.101562 C 4.375 2.101562 3.898438 2.578125 3.898438 3.164062 L 3.898438 20.03125 C 3.898438 20.621094 4.375 21.09375 4.960938 21.09375 L 18.359375 21.09375 C 18.945312 21.09375 19.417969 20.621094 19.417969 20.03125 L 19.417969 7.617188 C 19.417969 7.597656 19.414062 7.578125 19.398438 7.566406 L 13.957031 2.121094 C 13.941406 2.109375 13.925781 2.101562 13.90625 2.101562 Z M 4.960938 2.242188 L 13.878906 2.242188 L 19.277344 7.644531 L 19.277344 20.03125 C 19.277344 20.542969 18.867188 20.953125 18.359375 20.953125 L 4.960938 20.953125 C 4.449219 20.953125 4.039062 20.542969 4.039062 20.03125 L 4.039062 3.164062 C 4.039062 2.652344 4.449219 2.242188 4.960938 2.242188 Z M 4.960938 2.242188 "/>
<path style="fill-rule:nonzero;fill:url(#linear4);stroke-width:11.338583;stroke-linecap:butt;stroke-linejoin:miter;stroke:rgb(12.941177%,12.941177%,12.941177%);stroke-opacity:1;stroke-miterlimit:4;" d="M 774.413649 706.388701 C 761.501506 706.703631 750.164015 714.891819 743.550478 724.969589 C 749.849084 749.219224 745.125129 774.728579 743.550478 799.293144 C 706.07377 800.552865 668.282132 800.237935 630.805424 798.663283 C 601.516905 807.166402 592.068996 841.493806 626.71133 854.405949 C 664.502968 852.831298 702.294606 850.941716 740.086244 848.737204 C 738.196663 883.694469 737.881732 918.336804 738.196663 953.294069 C 710.482795 965.576351 684.343578 982.582588 662.928317 1003.99785 C 616.63356 1049.032885 596.47802 1121.781788 621.987376 1182.563339 C 642.142916 1228.858096 704.499119 1239.250796 746.06992 1217.835535 C 761.186576 1216.890744 783.861558 1187.287294 792.049747 1199.884507 C 819.133754 1245.549403 885.26912 1202.403949 839.604225 1146.031423 C 884.009399 1095.957502 911.723267 1034.23116 933.138529 971.245097 C 948.885044 974.3944 964.946491 977.858634 980.063146 983.527379 L 980.063146 934.39825 C 977.858634 933.768389 975.654121 933.138529 973.134679 932.508668 C 956.758302 929.674295 942.271508 927.469783 953.294069 909.518755 C 961.797187 896.921542 971.560027 893.457309 967.465933 882.119817 C 949.514905 876.136141 930.304156 873.931629 911.723267 869.837535 C 884.95419 864.168789 901.960427 905.739591 889.993075 921.171177 C 856.295531 923.060758 822.597987 926.524992 790.160165 935.343041 C 790.160165 905.10973 791.734816 875.19135 793.939329 844.95804 C 856.610462 839.604225 918.966664 832.990688 981.007937 821.653196 C 1001.478407 817.559102 1001.478407 770.004624 965.576351 770.004624 C 916.132291 781.971977 865.743441 789.845234 815.03966 795.19905 C 790.160165 802.757377 802.127517 751.738666 811.575426 728.118892 C 798.978214 712.057446 786.066071 706.07377 774.413649 706.388701 Z M 1060.055446 915.187501 C 1038.010324 915.187501 1020.059296 933.453459 1020.059296 956.443372 L 1020.059296 1255.312243 L 1079.896056 1255.312243 L 1079.896056 1141.937329 L 1220.040047 1141.937329 L 1220.040047 1255.312243 L 1279.876807 1255.312243 L 1279.876807 956.443372 C 1279.876807 933.453459 1262.24071 915.187501 1240.195587 915.187501 Z M 876.766002 967.465933 C 862.279207 1011.871108 844.95804 1056.276282 817.244172 1094.697781 C 804.646959 1058.795725 794.88412 1021.948878 792.049747 983.84231 C 819.763615 975.969052 848.107343 969.355515 876.766002 967.465933 Z M 1100.051596 976.913843 L 1199.884507 976.913843 C 1211.221998 976.913843 1220.040047 986.046822 1220.040047 997.699244 L 1220.040047 1079.896056 L 1079.896056 1079.896056 L 1079.896056 997.699244 C 1079.896056 986.046822 1089.029035 976.913843 1100.051596 976.913843 Z M 741.975826 1004.942641 C 744.180339 1029.192275 747.644572 1053.44191 752.998387 1077.376614 C 751.738666 1102.256109 785.43621 1136.583513 758.982063 1152.015099 C 736.307081 1169.651196 700.405024 1184.767852 674.265808 1166.186963 C 658.834223 1145.716492 662.298456 1116.742903 667.337341 1093.12313 C 676.47032 1053.44191 707.648422 1024.15339 741.975826 1004.942641 Z M 980.063146 1175.005012 C 956.443372 1185.712643 930.304156 1192.011249 906.054521 1196.735204 C 887.473633 1196.420273 874.56149 1277.357365 974.70933 1242.085169 C 976.598912 1241.455309 978.173564 1240.825448 980.063146 1240.195587 Z M 980.063146 1175.005012 " transform="matrix(0.0124035,0,0,0.0124035,0,0)"/>
</g>
</svg>
